openframe-frontend-core/src/components/icons-v2/brand-logos/adobe-ai.svg

<svg width="24" height="24" viewBox="0 0 24 24" fill="none" xmlns="http://www.w3.org/2000/svg">
<path d="M19.875 6C19.875 4.96447 19.0355 4.125 18 4.125H6C4.96447 4.125 4.125 4.96447 4.125 6V18C4.125 19.0355 4.96447 19.875 6 19.875H18C19.0355 19.875 19.875 19.0355 19.875 18V6ZM22.125 18C22.125 20.2782 20.2782 22.125 18 22.125H6C3.72183 22.125 1.875 20.2782 1.875 18V6C1.875 3.72183 3.72183 1.875 6 1.875H18C20.2782 1.875 22.125 3.72183 22.125 6V18Z" fill="#888888"/>
<path d="M8.2251 8.14062C8.78349 6.45295 11.2159 6.45303 11.7744 8.14062L11.8242 8.31494L13.5938 15.7388L13.6157 15.8516C13.6916 16.417 13.3271 16.9586 12.7603 17.0937C12.1938 17.2285 11.625 16.9099 11.4375 16.3716L11.4053 16.2603L11.0156 14.6255H8.98389L8.59424 16.2603C8.45011 16.8646 7.8436 17.2378 7.23926 17.0937C6.63489 16.9496 6.26163 16.3431 6.40576 15.7388L8.17676 8.31494L8.2251 8.14062ZM14.8755 15.9995V11C14.8755 10.3787 15.3792 9.875 16.0005 9.875C16.6216 9.87526 17.1255 10.3788 17.1255 11V15.9995C17.1255 16.6207 16.6216 17.1242 16.0005 17.1245C15.3792 17.1245 14.8755 16.6208 14.8755 15.9995ZM9.52148 12.3755H10.4795L9.99902 10.3672L9.52148 12.3755ZM16.0093 6.875L16.125 6.88086C16.6923 6.93846 17.1343 7.41751 17.1343 8C17.1343 8.58249 16.6923 9.06154 16.125 9.11914L16.0093 9.125H16.0005C15.3792 9.125 14.8755 8.62132 14.8755 8C14.8755 7.37868 15.3792 6.875 16.0005 6.875H16.0093Z" fill="#888888"/>
</svg>

<svg xmlns="http://www.w3.org/2000/svg" width="24" height="24" fill="none" viewBox="0 0 24 24">
  <path fill="#888" d="M19.875 6c0-1.036-.84-1.875-1.875-1.875H6c-1.036 0-1.875.84-1.875 1.875v12c0 1.035.84 1.875 1.875 1.875h12c1.035 0 1.875-.84 1.875-1.875V6Zm2.25 12A4.125 4.125 0 0 1 18 22.125H6A4.125 4.125 0 0 1 1.875 18V6A4.125 4.125 0 0 1 6 1.875h12A4.125 4.125 0 0 1 22.125 6v12Z"/>
  <path fill="#888" d="M8.225 8.14c.558-1.687 2.99-1.687 3.55 0l.05.175 1.769 7.424.022.113a1.125 1.125 0 0 1-2.178.52l-.033-.112-.39-1.635h-2.03l-.39 1.635a1.125 1.125 0 0 1-2.188-.521l1.77-7.424.05-.174Zm6.65 7.86v-5a1.125 1.125 0 0 1 2.25 0v5a1.125 1.125 0 0 1-2.25 0Zm-5.354-3.624h.958L10 10.367l-.478 2.008Zm6.488-5.501.116.006a1.124 1.124 0 0 1 0 2.238l-.116.006H16a1.125 1.125 0 0 1 0-2.25h.01Z"/>
</svg>
